symbols/web/taxi_alert/materialsymbolsoutlined/taxi_alert_wght100gradN25fill1_48px.svg

<svg xmlns="http://www.w3.org/2000/svg" height="48" width="48"><path d="M35.15 20.15q-3.05 0-5.175-2.125T27.85 12.85q0-3.05 2.125-5.15Q32.1 5.6 35.15 5.6t5.15 2.1q2.1 2.1 2.1 5.15 0 3.05-2.1 5.175t-5.15 2.125Zm-.65-6.45h1.35V8.55H34.5ZM6.6 26.05l3.9-11.3q.05-.25.3-.4.25-.15.5-.15h7.3v-2.7h4.6q-.1 1-.025 1.9.075.9.275 1.9h-11.9L8.2 25h24.15q.85 0 1.475-.075.625-.075 1.325-.075h1.025q.525 0 .975-.1l.25.55v15.15q0 .25-.15.4-.15.15-.4.15h.3q-.25 0-.4-.15-.15-.15-.15-.4v-3.5H7.4v3.5q0 .25-.15.4-.15.15-.4.15h.3q-.25 0-.4-.15-.15-.15-.15-.4Zm28.6-8.65q.35 0 .625-.275t.275-.675q0-.4-.275-.65t-.625-.25q-.4 0-.675.25t-.275.65q0 .4.275.675t.675.275ZM12.6 32.9q.85 0 1.4-.55.55-.55.55-1.35 0-.9-.575-1.425T12.6 29.05q-.8 0-1.35.55T10.7 31q0 .8.55 1.35t1.35.55Zm18.8 0q.85 0 1.4-.55.55-.55.55-1.35 0-.9-.575-1.425T31.4 29.05q-.8 0-1.35.55T29.5 31q0 .8.55 1.35t1.35.55Z"/></svg>

<svg xmlns="http://www.w3.org/2000/svg" height="48" width="48"><path d="M35.15 20.15Q32.1 20.15 29.975 18.025Q27.85 15.9 27.85 12.85Q27.85 9.8 29.975 7.7Q32.1 5.6 35.15 5.6Q38.2 5.6 40.3 7.7Q42.4 9.8 42.4 12.85Q42.4 15.9 40.3 18.025Q38.2 20.15 35.15 20.15ZM34.5 13.7H35.85V8.55H34.5ZM6.6 26.05 10.5 14.75Q10.55 14.5 10.8 14.35Q11.05 14.2 11.3 14.2H18.6V11.5H23.2Q23.1 12.5 23.175 13.4Q23.25 14.3 23.45 15.3H11.55L8.2 25H32.35Q33.2 25 33.825 24.925Q34.45 24.85 35.15 24.85Q35.65 24.85 36.175 24.85Q36.7 24.85 37.15 24.75L37.4 25.3V40.45Q37.4 40.7 37.25 40.85Q37.1 41 36.85 41H37.15Q36.9 41 36.75 40.85Q36.6 40.7 36.6 40.45V36.95H7.4V40.45Q7.4 40.7 7.25 40.85Q7.1 41 6.85 41H7.15Q6.9 41 6.75 40.85Q6.6 40.7 6.6 40.45ZM35.2 17.4Q35.55 17.4 35.825 17.125Q36.1 16.85 36.1 16.45Q36.1 16.05 35.825 15.8Q35.55 15.55 35.2 15.55Q34.8 15.55 34.525 15.8Q34.25 16.05 34.25 16.45Q34.25 16.85 34.525 17.125Q34.8 17.4 35.2 17.4ZM12.6 32.9Q13.45 32.9 14 32.35Q14.55 31.8 14.55 31Q14.55 30.1 13.975 29.575Q13.4 29.05 12.6 29.05Q11.8 29.05 11.25 29.6Q10.7 30.15 10.7 31Q10.7 31.8 11.25 32.35Q11.8 32.9 12.6 32.9ZM31.4 32.9Q32.25 32.9 32.8 32.35Q33.35 31.8 33.35 31Q33.35 30.1 32.775 29.575Q32.2 29.05 31.4 29.05Q30.6 29.05 30.05 29.6Q29.5 30.15 29.5 31Q29.5 31.8 30.05 32.35Q30.6 32.9 31.4 32.9Z"/></svg>
